X: 1999
T: Your Smile Tonight Mother Dear
B: australian traditional tunes wiki
M:3/4
R: Waltz
Q: 1/4=100
K:D
V:1 
|:"D"A4F2|A4d2|f6-|f4e2|d4F2|c4B2|"A7"A6-|A4A2|E4F2|G4A2|c6-|c4B2|1
A4B2|G4A2|"D"F6-|F4F2:|2A4A2|"Em"B4c2|"D"d6-|d4||
% abcbook-tune_id 6342d5bef6609482737cfc96


% abcbook-boost 0
% abcbook-tablature 
% abcbook-transpose 
% abcbook-lastupdated 1665324493434
% abcbook-soundfonts 
% abcbook-repeats 1
% NFF Book 2009

